src/topics/icons/todomvc.svg

<svg height="230" preserveAspectRatio="xMidYMid" viewBox="0 0 256 230" width="256" xmlns="http://www.w3.org/2000/svg"><path d="m34.404 15.29h23.547v-15.29h-23.547c-6.522 0-12.871 1.835-18.363 5.306l8.17 12.925c3.043-1.924 6.568-2.941 10.193-2.941zm-19.114 19.114c0-2.794.587-5.482 1.744-7.991l-13.886-6.401c-2.089 4.53-3.148 9.372-3.148 14.392v27.064h15.29zm-15.29 42.507h15.29v38.532h-15.29zm205.901-58.194c4.61-2.919 9.204-5.677 13.753-8.257-2.6-2.678-5.633-4.938-8.941-6.645-4.837-2.496-10.286-3.815-15.759-3.815h-13.532v15.29h13.532c4.006 0 7.788 1.211 10.947 3.427zm-205.901 112.17h15.29v38.609h-15.29zm73.395-130.887h38.532v15.291h-38.532zm53.975 0h38.609v15.291h-38.609zm17.049 214.067h38.532v15.291h-38.532zm69.649-127.217h15.291v38.609h-15.291zm0 54.052h15.291v38.532h-15.291zm-198.778 54.052v-10.015h-15.29v10.015c0 12.523 6.814 24.067 17.783 30.129l7.395-13.384c-6.099-3.37-9.888-9.786-9.888-16.745zm198.778-133.687v10.14h15.29v-22.709c-5.026 3.742-10.128 7.936-15.29 12.569zm0 133.687c0 9.585-7.153 17.734-16.639 18.956l1.952 15.165c8.231-1.06 15.806-5.078 21.331-11.313 5.575-6.293 8.646-14.393 8.646-22.808v-.076h-15.29zm-177.753 19.113h38.609v15.291h-38.609zm54.052 0h38.609v15.291h-38.609z" fill="#383838"/><path d="m35.015 121.738 71.72 71.72s71.72-137.979 149.265-168.924l-2.912-21.844c-42.231 16.747-106.306 60.799-153.634 128.149l-49.876-29.488z" fill="#af2f2f"/></svg>

<?xml version="1.0" encoding="UTF-8" standalone="no"?>
<svg width="256px" height="230px" viewBox="0 0 256 230" version="1.1" xmlns="http://www.w3.org/2000/svg" xmlns:xlink="http://www.w3.org/1999/xlink" preserveAspectRatio="xMidYMid">
	<g>
		<path d="M34.404,15.29 L57.951,15.29 L57.951,0 L34.404,0 C27.882,0 21.533,1.835 16.041,5.306 L24.211,18.231 C27.254,16.307 30.779,15.29 34.404,15.29 L34.404,15.29 Z M15.29,34.404 C15.29,31.61 15.877,28.922 17.034,26.413 L3.148,20.012 C1.059,24.542 0,29.384 0,34.404 L0,61.468 L15.29,61.468 L15.29,34.404 L15.29,34.404 Z M0,76.911 L15.29,76.911 L15.29,115.443 L0,115.443 L0,76.911 Z M205.901,18.717 C210.511,15.798 215.105,13.04 219.654,10.46 C217.054,7.782 214.021,5.522 210.713,3.815 C205.876,1.319 200.427,0 194.954,0 L181.422,0 L181.422,15.29 L194.954,15.29 C198.96,15.29 202.742,16.501 205.901,18.717 L205.901,18.717 Z M0,130.887 L15.29,130.887 L15.29,169.496 L0,169.496 L0,130.887 Z M73.395,0 L111.927,0 L111.927,15.291 L73.395,15.291 L73.395,0 Z M127.37,0 L165.979,0 L165.979,15.291 L127.37,15.291 L127.37,0 Z M144.419,214.067 L182.951,214.067 L182.951,229.358 L144.419,229.358 L144.419,214.067 Z M214.068,86.85 L229.359,86.85 L229.359,125.459 L214.068,125.459 L214.068,86.85 Z M214.068,140.902 L229.359,140.902 L229.359,179.434 L214.068,179.434 L214.068,140.902 Z M15.29,194.954 L15.29,184.939 L0,184.939 L0,194.954 C0,207.477 6.814,219.021 17.783,225.083 L25.178,211.699 C19.079,208.329 15.29,201.913 15.29,194.954 L15.29,194.954 Z M214.068,61.267 L214.068,71.407 L229.358,71.407 L229.358,48.698 C224.332,52.44 219.23,56.634 214.068,61.267 L214.068,61.267 Z M214.068,194.954 C214.068,204.539 206.915,212.688 197.429,213.91 L199.381,229.075 C207.612,228.015 215.187,223.997 220.712,217.762 C226.287,211.469 229.358,203.369 229.358,194.954 L229.358,194.878 L214.068,194.878 L214.068,194.954 L214.068,194.954 Z M36.315,214.067 L74.924,214.067 L74.924,229.358 L36.315,229.358 L36.315,214.067 Z M90.367,214.067 L128.976,214.067 L128.976,229.358 L90.367,229.358 L90.367,214.067 Z" fill="#383838"></path>
		<path d="M35.015,121.738 L106.735,193.458 C106.735,193.458 178.455,55.479 256,24.534 L253.088,2.69 C210.857,19.437 146.782,63.489 99.454,130.839 L49.578,101.351 L35.015,121.738" fill="#AF2F2F"></path>
	</g>
</svg>
